X:221
T:Earl Grey
R:Strathspey
B:The Athole Collection
M:C
L:1/8
K:A
E|A>BA>E F>AE>c|d>B d/c/B/A/ G<BB>c|A>BA>E F>AE>c|(3def (3efg a<AA:|
||g|a>Ag>A f>Ae>c|d>B d/c/B/A/ G<BB>g|a>Ag>A f>Ae>c|(3def (3efg a<AA>g|
(3afa (3geg (3fdf (3ece|d>B d/c/B/A/ G<BB>c|A>BA>E F>AE>c|
(3def (3efg (3aed (3cdB|]

